X:1
T:Tango in Toronto
T:Tango in Toronto
T:Colin Hume, 2010
C:Colin Hume, 2010
%%score 1 2
L:1/8
Q:1/2=120
M:2/2
K:Dmin
V:1 treble 
V:2 bass 
V:1
 z8 | z8 | z8 | z8 |:"Dm" A2 A2- A2 B2 |"^/" A4 F4 |"A7" G2 G2- G2 A2 |"^/" G4 E4 | %8
"Bb7" F2 F2- F2 G2 |"^/" F4 E2 D2 |"A7" ^C2 D2 E2 C2 |"^/" D2 E2 F2 G2 |"Dm" A2 A2- A2 B2 | %13
"^/" A4 d4 |"Bb7"{de} f2 e2 d2 ^c2 |"^/" d2 e2 f2 g2 |"Dm" a2 a2 z2 d2 |"A7" f4 e4 |1 %18
"Dm" d4 z2 AB |"^/" A2 G2 F2 G2 :|2"Dm" d4 z2 DE |"^/" F2 G2 A2 B2 |]"C7" c2 c2- c2 G2 | %23
"^/" d4 c4 |"F" A2 A2- A2 B2 |"^/" A8 |"A7" A2 A2- A2 E2 |"^/" B2 A2 z2 GA |"Dm" F4 z2 DE | %29
"^/" F2 A2 d2 e2 |"Bb7" f2 f2- f2 e2 |"^/" d4 ^G4 |"Dm" A4 z2 A,2 |"^/" B,4 A,4 | %34
"A7" G,2 G,2- G,2 A,2 |"^/" E4 ^C4 |"Dm" D8- |"^/" D4 z4 |] %38
V:2
 D,,6 A,,2 | D,4 A,,4 | D,,6 A,,2 | D,4 A,,4 |:"^prog: 76" f8- | f2 e2 d4 | e8- | e2 d2 ^c4 | d8- | %9
 d2 d2 e2 f2 | Tg8- | g4 ^c4 | d8- | d4 A4 | _A8- | A2 d2 c2 B2 | =A4 z2 F2 | A4 G4 |1 F4 z2 ab | %19
 a2 g2 f2 e2 :|2 F4 z4 | z8 |] E8- | E2 F2 G4 | F8- | F2 E2 D4 | ^C8- | C8 | D4 z4 | z8 | %30
 d2 d2- d2 c2 | B4 D4 | F4 z4 | z8 | E8 | A,8 | D4 z2 A2 | d4 z4 |] %38

